X: 181
T:the Earl of Angus and Arran
B:William Marshall Volume 2nd Of A Collection Of Scottish Melodies (1845)
C:William Marshall
L:1/8
M:4/4
O:Scotland
R:Slow Strathspey
Z:Clark Bernst
%%Page:33 - 2
F:http://richardrobinson.tunebook.org.uk/tune/4024
%%TBL:{"version":1,"type":"tune","id":"4024"}
K:Eb
B, [| \
E/E3/2 B2 {A}G3/2F/E3/2G/ | A/D3/2F3/2E/ D/B,3/2C3/2D/ | \
E/E3/2 B2 {A}G3/2F/E3/2G/ | A/C3/2F3/2D/ E2 E3/2B,/ |
E/E3/2 B2 G3/2F/E3/2G/ | A/D3/2F3/2E/ D/B,3/2C3/2D/ | \
E/E3/2 B2 {A}G3/2F/E3/2G/ | A/C3/2F3/2D/ E2 E3/2B/ [|
G/B3/2E3/2B/ G/B3/2E3/2d/ | e/E3/2G3/2E/ D/F3/2F3/2A/ | \
G/B3/2E3/2B/ GBE3/2g/ | f3/2e/d3/2c/ B2 BG |
A/c3/2F3/2A/ G/B3/2E3/2G/ | F3/2G/A3/2G/ FEDB, | \
E/G3/2F/A3/2 G/B3/2A3/2c/ | B/e3/2d3/2f/ e2 eB, |]

